X: 4
T: The Sandymount
R: reel
M: 4/4
L: 1/8
K: Ador
|:eAAG A3G|EGDG EGDG|EAAG A2 (3Bcd|egfa gedg|
eAAG A3G|EGDG EGDG|EAAG A2 (3Bcd|egfa gedg||
|:eaag a2ba|gede gedg|eaag a2ga|bagb a3g|
eaag a2ba|gedB dega|bgaf gefd|e3d e2ag||


Tune 176	Setting 12822

